src/img/linkedin_icon.svg

<svg width="40" height="40" viewBox="0 0 40 40" fill="none" xmlns="http://www.w3.org/2000/svg">
<rect x="0.890625" y="0.5" width="38.6094" height="38.6094" stroke="#C6CBCD"/>
<path d="M28.2656 11H12.0156C11.7463 11 11.4879 11.107 11.2975 11.2975C11.107 11.4879 11 11.7463 11 12.0156V28.2656C11 28.535 11.107 28.7933 11.2975 28.9838C11.4879 29.1742 11.7463 29.2812 12.0156 29.2812H28.2656C28.535 29.2812 28.7933 29.1742 28.9838 28.9838C29.1742 28.7933 29.2812 28.535 29.2812 28.2656V12.0156C29.2812 11.7463 29.1742 11.4879 28.9838 11.2975C28.7933 11.107 28.535 11 28.2656 11ZM16.4224 26.5766H13.7087V17.8524H16.4224V26.5766ZM15.0655 16.6611C14.6486 16.6611 14.2487 16.4955 13.9538 16.2006C13.659 15.9058 13.4934 15.5059 13.4934 15.0889C13.4934 14.6719 13.659 14.272 13.9538 13.9772C14.2487 13.6824 14.6486 13.5167 15.0655 13.5167C15.4825 13.5167 15.8824 13.6824 16.1773 13.9772C16.4721 14.272 16.6377 14.6719 16.6377 15.0889C16.6377 15.5059 16.4721 15.9058 16.1773 16.2006C15.8824 16.4955 15.4825 16.6611 15.0655 16.6611ZM26.5777 26.5766H23.867V22.3344C23.867 21.3228 23.8487 20.0218 22.4573 20.0218C21.0455 20.0218 20.8313 21.1248 20.8313 22.2633V26.5777H18.1226V17.8534H20.7226V19.0458H20.7602C21.1207 18.3602 22.0063 17.6371 23.3236 17.6371C26.0698 17.6371 26.5766 19.4429 26.5766 21.793V26.5766H26.5777Z" fill="#C6CBCD"/>
</svg>

<svg width="40" height="40" fill="none" xmlns="http://www.w3.org/2000/svg">
  <path stroke="#C6CBCD" d="M.89.5H39.5v38.61H.89z"/>
  <path d="M28.27 11H12.02A1.02 1.02 0 0 0 11 12.02v16.25a1.02 1.02 0 0 0 1.02 1.01h16.25a1.02 1.02 0 0 0 1.01-1.01V12.02A1.02 1.02 0 0 0 28.27 11ZM16.42 26.58h-2.71v-8.73h2.71v8.73Zm-1.35-9.92a1.57 1.57 0 1 1 0-3.14 1.57 1.57 0 0 1 0 3.14Zm11.5 9.92h-2.7v-4.25c0-1-.02-2.3-1.41-2.3-1.41 0-1.63 1.1-1.63 2.23v4.32h-2.7v-8.73h2.6v1.2h.03a2.85 2.85 0 0 1 2.56-1.41c2.75 0 3.26 1.8 3.26 4.15v4.79Z" fill="#C6CBCD"/>
</svg>
